 to chulogo

cs pd ht
setpc 4
setpensize [ 1 2 ]
circle 100
repeat 8 [ pu fd 130 rt 30 pd repeat 3 [ fd 50 lt 120 ] 
lt 30 pu bk 130 pd rt 360/8 ]
setfc 4
fill
rt 90
pu setxy -30 10 pd
setpc 1
label [ LOGO ]
end

