to hinh
cs ht pd
repeat 12 [ setpensize [ 1 1 ] setpc 4 repeat 4 [ fd 100 rt 90 ] 
setpensize [ 1 3 ] setpc 2 pu fd 80 pd circle2 20 
rt 90 pu fd 20 pd setfc 6 fill pu bk 20 pd lt 90 
pu bk 80 pd rt 360/12 ]
end

