to hinhtron :r
repeat 360 [ fd :r bk :r rt 1 ]
end

to ngoisao
cs
rt 90
setpc 1
setpensize [ 1 2 ]
repeat 5 [ fd 100 hinhtron 5 lt 72 fd 100 hinhtron 5 rt 144 ]
repeat 5 [ fd 261.803398 rt 144 ]
end

