to lucgiac
cs pd ht
setpc 1
setpensize [ 1 3 ]
for [ i 1 6 1 ] [ 
rt 30
nuadt 50
rt 90
if (:i=3) [ make "a pos ]
]
setheading towards :a
make "d (distance :a)/2
pu fd :d pd
circle :d
setfc 2 fill
end

to nuadt :r
repeat 180 [ fd 2*3.14*:r/360 rt 1 ]
end

Make "a [172.240656 101.4575]
Make "d 99.9505726416317
