to hinhve
cs ht pd
setpc 1
setpensize [ 1 2 ]
rt 90
repeat 10 [ ngugiac 100
fd 100/2 lt 90
pu fd 50 pd
setfc 4 fill
pu bk 50 pd
rt 90  fd 50
rt 360/10
ngugiac 50
fd 50/2 lt 90
pu fd 25 pd
setfc 6 fill
pu bk 25 pd
rt 90 fd 25
rt 360/10
]
end

to ngugiac :d
repeat 5 [ fd :d lt 72 ]
end

